symbols/web/laptop_mac/materialsymbolssharp/laptop_mac_wght100fill1_40px.svg

<svg xmlns="http://www.w3.org/2000/svg" height="40" width="40"><path d="M2.167 31.75v-1.583H6.5l-1-1v-22h29v22l-1 1h4.333v1.583ZM20 31.292q.375 0 .583-.209.209-.208.209-.541 0-.334-.209-.563-.208-.229-.583-.229t-.583.229q-.209.229-.209.563 0 .333.209.541.208.209.583.209Z"/></svg>

<svg xmlns="http://www.w3.org/2000/svg" height="40" width="40"><path d="M2.167 31.75V30.167H6.5L5.5 29.167V7.167H34.5V29.167L33.5 30.167H37.833V31.75ZM20 31.292Q20.375 31.292 20.583 31.083Q20.792 30.875 20.792 30.542Q20.792 30.208 20.583 29.979Q20.375 29.75 20 29.75Q19.625 29.75 19.417 29.979Q19.208 30.208 19.208 30.542Q19.208 30.875 19.417 31.083Q19.625 31.292 20 31.292Z"/></svg>
